symbols/web/sports_golf/materialsymbolsoutlined/sports_golf_wght100_48px.svg

<svg xmlns="http://www.w3.org/2000/svg" height="48" width="48"><path d="M24 29.4q-4.75 0-8.075-3.325Q12.6 22.75 12.6 18q0-4.75 3.325-8.075Q19.25 6.6 24 6.6q4.75 0 8.075 3.325Q35.4 13.25 35.4 18q0 4.75-3.325 8.075Q28.75 29.4 24 29.4Zm0-1.1q4.3 0 7.3-3t3-7.3q0-4.3-3-7.3t-7.3-3q-4.3 0-7.3 3t-3 7.3q0 4.3 3 7.3t7.3 3Zm-4.05-10.5q.75 0 1.3-.55t.55-1.3q0-.75-.55-1.3t-1.3-.55q-.75 0-1.3.55t-.55 1.3q0 .75.55 1.3t1.3.55Zm8.1 0q.75 0 1.3-.55t.55-1.3q0-.75-.55-1.3t-1.3-.55q-.75 0-1.3.55t-.55 1.3q0 .75.55 1.3t1.3.55ZM24 13.65q.75 0 1.3-.55t.55-1.3q0-.75-.55-1.3T24 9.95q-.75 0-1.3.55t-.55 1.3q0 .75.55 1.3t1.3.55Zm-.55 27.45V39q0-2.3-1.525-3.825Q20.4 33.65 18.1 33.65H16v-1.1h16v1.1h-2.1q-2.3 0-3.825 1.525Q24.55 36.7 24.55 39v2.1ZM24 18Z"/></svg>

<svg xmlns="http://www.w3.org/2000/svg" height="48" width="48"><path d="M24 29.4Q19.25 29.4 15.925 26.075Q12.6 22.75 12.6 18Q12.6 13.25 15.925 9.925Q19.25 6.6 24 6.6Q28.75 6.6 32.075 9.925Q35.4 13.25 35.4 18Q35.4 22.75 32.075 26.075Q28.75 29.4 24 29.4ZM24 28.3Q28.3 28.3 31.3 25.3Q34.3 22.3 34.3 18Q34.3 13.7 31.3 10.7Q28.3 7.7 24 7.7Q19.7 7.7 16.7 10.7Q13.7 13.7 13.7 18Q13.7 22.3 16.7 25.3Q19.7 28.3 24 28.3ZM19.95 17.8Q20.7 17.8 21.25 17.25Q21.8 16.7 21.8 15.95Q21.8 15.2 21.25 14.65Q20.7 14.1 19.95 14.1Q19.2 14.1 18.65 14.65Q18.1 15.2 18.1 15.95Q18.1 16.7 18.65 17.25Q19.2 17.8 19.95 17.8ZM28.05 17.8Q28.8 17.8 29.35 17.25Q29.9 16.7 29.9 15.95Q29.9 15.2 29.35 14.65Q28.8 14.1 28.05 14.1Q27.3 14.1 26.75 14.65Q26.2 15.2 26.2 15.95Q26.2 16.7 26.75 17.25Q27.3 17.8 28.05 17.8ZM24 13.65Q24.75 13.65 25.3 13.1Q25.85 12.55 25.85 11.8Q25.85 11.05 25.3 10.5Q24.75 9.95 24 9.95Q23.25 9.95 22.7 10.5Q22.15 11.05 22.15 11.8Q22.15 12.55 22.7 13.1Q23.25 13.65 24 13.65ZM23.45 41.1V39Q23.45 36.7 21.925 35.175Q20.4 33.65 18.1 33.65H16V32.55H32V33.65H29.9Q27.6 33.65 26.075 35.175Q24.55 36.7 24.55 39V41.1ZM24 18Q24 18 24 18Q24 18 24 18Q24 18 24 18Q24 18 24 18Q24 18 24 18Q24 18 24 18Q24 18 24 18Q24 18 24 18Z"/></svg>
